X: 7
T: Sligo Creek
R: reel
M: 4/4
L: 1/8
K: Bdor
de | f2ef dB~B2 | f2ef defg | a2ed cAAF | EFAB c2de |
   f2ef dB~B2 | f2ef defg | a2ed cAec | ABcA B2 :|
BA | =GBBA Bcde | fdec defd | eA~A2 cBAF | EFAB c2BA |
     =GBBA Bcde | fdec defd | ea~a2 efec | ABcA B2 :|

